X: 1
T:no name
R:reel
Z:id:hn-reel-539
M:C|
K:G
dB~B2 dBGB|dBBA Bdge|dB~B2 dBGB|cBce agfe|
dB~B2 dBGA|BGBd gfga|bg~g2 agfa|1 gfga bage:|2 gfed Beef||
|:g2bg fgaf|gbfg edBd|g2bg fgaf|gfed Bdef|
g2bg fgaf|gbfg edBd|~g3a aggf|1 gfed Beef:|2 gfed Bdge||
